icons/buildkite.svg

<?xml version="1.0" encoding="UTF-8"?>
<svg width="512px" height="91px" viewBox="0 0 512 91" version="1.1" xmlns="http://www.w3.org/2000/svg" xmlns:xlink="http://www.w3.org/1999/xlink" preserveAspectRatio="xMidYMid">
    <g>
				<path d="M488.237949,21.6265425 C502.600205,21.6265425 511.203556,30.7987818 511.203556,45.7299271 C511.203556,47.4803544 511.019761,49.4233288 511.019761,49.6071237 L477.761641,49.6071237 C478.041709,55.7336194 483.240479,60.1972091 489.480752,60.1972091 C495.344684,60.1972091 498.556718,57.2652433 500.070838,53.1079784 L510.547145,56.2412433 C508.184068,64.2757049 500.806017,70.9885937 489.366974,70.9885937 C476.606359,70.9885937 465.359863,61.8163544 465.359863,46.1325254 C465.359863,31.2538929 476.326291,21.6265425 488.237949,21.6265425 Z M225.805128,23.0618929 L225.805128,49.887192 C225.805128,55.0859613 228.430769,59.2519784 234.312205,59.2519784 C239.887316,59.2519784 243.064342,55.4710553 243.064342,50.079739 L243.064342,23.0618929 L255.63241,23.0618929 L255.63241,61.1599442 C255.638121,63.9700178 255.79589,66.7777238 256.105026,69.5707476 L244.114598,69.5707476 C243.855728,67.9117873 243.72988,66.2347887 243.738256,64.5557732 C241.182632,68.9318416 235.791316,70.7960467 230.881368,70.7960467 C219.62612,70.7960467 213.202051,62.5777903 213.202051,52.4165596 L213.202051,23.0618929 L225.805128,23.0618929 Z M354.575316,1.13779033 L354.584068,61.1599442 C354.584068,64.2757049 354.776615,67.6802861 354.96041,69.5707476 L342.961231,69.5707476 C342.650423,67.7903836 342.492309,65.9867177 342.488615,64.1794314 C340.405607,67.8728331 335.679453,70.7085254 329.439179,70.7085254 C316.205949,70.7085254 306.753641,60.3109869 306.753641,46.2025425 C306.753641,32.5929698 315.92588,21.915363 329.062838,21.915363 C337.097299,21.915363 340.878222,25.2236707 342.191043,27.674269 L342.191043,1.13779033 L354.575316,1.13779033 Z M452.660513,9.17225187 L452.660513,23.0618929 L462.025299,23.0618929 L462.025299,34.2208673 L452.660513,34.2208673 L452.660513,53.6856194 C452.660513,57.755363 454.550974,59.0769356 458.148103,59.0769356 C459.450286,59.0915408 460.750233,58.9653607 462.025299,58.7005937 L462.025299,69.1418929 C459.755358,69.9774085 457.344678,70.3638307 454.927316,70.2796707 C445.860103,70.2796707 440.188718,64.8883544 440.188718,55.9086621 L440.188718,34.2208673 L434.105983,34.2208673 L434.105983,23.0618929 C439.015932,23.0618929 441.282735,19.8498587 441.282735,15.6925937 L441.282735,9.17225187 L452.660513,9.17225187 Z M185.133949,2.55563648 C198.174632,2.55563648 205.543932,10.205004 205.543932,20.6025425 C205.543932,27.5079784 201.386667,33.0830895 195.811556,34.973551 C202.331897,36.5839442 207.62694,42.5353972 207.62694,50.8499271 C207.62694,61.7200809 199.496205,69.5707476 186.928137,69.5707476 L161.039316,69.5707476 L161.039316,2.55563648 L185.133949,2.55563648 Z M278.317949,23.0618929 L278.317949,69.5707476 L265.758632,69.5707476 L265.758632,23.0618929 L278.317949,23.0618929 Z M301.012239,1.13779033 L301.012239,69.5707476 L288.444171,69.5707476 L288.444171,1.13779033 L301.012239,1.13779033 Z M376.578188,1.13779033 L376.578188,40.3648673 L392.647111,23.0618929 L409.101128,23.0618929 L390.476581,42.6316707 L409.47747,69.5707476 L394.073709,69.5707476 L381.820718,51.7951579 L376.569436,57.2827476 L376.569436,69.535739 L364.01012,69.535739 L364.01012,1.13779033 L376.578188,1.13779033 Z M426.990496,23.0618929 L426.990496,69.5707476 L414.413675,69.5707476 L414.413675,23.0618929 L426.990496,23.0618929 Z M330.953299,33.179363 C324.529231,33.179363 319.452991,37.9055168 319.452991,46.2200467 C319.452991,54.5345767 324.336684,59.4532775 330.953299,59.4532775 C337.377368,59.4532775 342.392342,54.5433288 342.392342,46.1325254 C342.392342,37.721722 337.377368,33.179363 330.953299,33.179363 Z M184.670085,41.0212775 L173.878701,41.0212775 L173.878701,58.7005937 L184.468786,58.7005937 C190.805333,58.7005937 194.586256,55.3922861 194.586256,50.0009698 C194.586256,44.6096536 191.181675,41.0212775 184.670085,41.0212775 Z M478.024205,41.0212775 L498.819282,41.0212775 C498.635487,36.3913972 495.607248,31.8577903 488.421744,31.8577903 C483.069951,31.659632 478.500201,35.6870131 478.024205,41.0212775 Z M183.068444,13.5133117 L173.878701,13.5133117 L173.878701,30.2473972 L183.147214,30.2473972 C189.098667,30.2473972 192.695795,26.9390895 192.695795,21.8365937 C192.695795,16.734098 189.387487,13.5133117 183.068444,13.5133117 Z M271.998906,6.26161045e-06 C276.265471,0.000545230758 279.730109,3.44769865 279.752333,7.71420623 C279.774345,11.9807138 276.345634,15.4636034 272.079304,15.5083719 C267.812974,15.5531404 264.31193,12.1429679 264.244513,7.87693563 C264.209278,5.79849397 265.010958,3.79311967 266.469283,2.31175172 C267.927607,0.830383768 269.920167,-0.00263493986 271.998906,6.26161045e-06 Z M420.653949,6.26161045e-06 C424.920514,0.000545230758 428.385151,3.44769865 428.407376,7.71420623 C428.429388,11.9807138 425.000676,15.4636034 420.734346,15.5083719 C416.468016,15.5531404 412.966973,12.1429679 412.899556,7.87693563 C412.864321,5.79849397 413.666001,3.79311967 415.124325,2.31175172 C416.58265,0.830383768 418.57521,-0.00263493986 420.653949,6.26161045e-06 Z" fill="#000000"></path>
				<g transform="translate(0.000000, 3.430850)">
						<polygon fill="#30F2A2" points="0 0 43.7606838 21.442735 43.7606838 65.2034188 0 43.7606838"></polygon>
						<polygon fill="#30F2A2" points="87.9589744 0 131.282051 21.442735 87.9589744 43.7606838"></polygon>
						<polygon fill="#14CC80" points="87.9589744 0 43.7606838 21.442735 43.7606838 65.2034188 87.9589744 43.7606838"></polygon>
						<polygon fill="#14CC80" points="131.282051 21.442735 87.9589744 43.7606838 87.9589744 87.5213675 131.282051 65.2034188"></polygon>
				</g>
		</g>
</svg>

<svg xmlns="http://www.w3.org/2000/svg" viewBox="0 0 511.204 90.952">
  <path d="M488.238 21.627c14.362 0 22.966 9.172 22.966 24.103 0 1.75-.184 3.693-.184 3.877h-33.258c.28 6.127 5.478 10.59 11.719 10.59 5.864 0 9.076-2.932 10.59-7.089l10.476 3.133c-2.363 8.035-9.741 14.748-21.18 14.748-12.76 0-24.007-9.173-24.007-24.856 0-14.88 10.966-24.506 22.878-24.506zm-262.433 1.435v26.825c0 5.199 2.626 9.365 8.507 9.365 5.575 0 8.752-3.78 8.752-9.172V23.062h12.568V61.16c.006 2.81.164 5.618.473 8.41h-11.99a31.507 31.507 0 0 1-.377-5.014c-2.555 4.376-7.947 6.24-12.857 6.24-11.255 0-17.679-8.218-17.679-18.38V23.063zm128.77-21.924.01 60.022c0 3.116.192 6.52.376 8.41h-12a31.727 31.727 0 0 1-.472-5.39c-2.083 3.693-6.81 6.529-13.05 6.529-13.233 0-22.685-10.398-22.685-24.506 0-13.61 9.172-24.288 22.31-24.288 8.034 0 11.814 3.309 13.127 5.76V1.137zm98.086 8.034v13.89h9.364V34.22h-9.364v19.465c0 4.07 1.89 5.39 5.487 5.39a18.074 18.074 0 0 0 3.877-.375v10.44a18.668 18.668 0 0 1-7.098 1.139c-9.067 0-14.738-5.392-14.738-14.371V34.22h-6.083V23.06c4.91 0 7.177-3.211 7.177-7.368v-6.52zM185.134 2.556c13.04 0 20.41 7.649 20.41 18.047 0 6.905-4.157 12.48-9.732 14.37 6.52 1.61 11.815 7.562 11.815 15.877 0 10.87-8.13 18.72-20.699 18.72H161.04V2.557zm93.184 20.506V69.57h-12.56V23.06zm22.694-21.924V69.57h-12.568V1.138zm75.566 0v39.227l16.07-17.303H409.1l-18.624 19.57 19 26.939h-15.403L381.82 51.795l-5.252 5.488v12.253H364.01V1.138zm50.413 21.924V69.57h-12.577V23.06zm-96.038 10.117c-6.424 0-11.5 4.727-11.5 13.041 0 8.315 4.884 13.233 11.5 13.233 6.424 0 11.44-4.91 11.44-13.32 0-8.411-5.016-12.954-11.44-12.954zM184.67 41.021H173.88v17.68h10.59c6.336 0 10.117-3.309 10.117-8.7 0-5.391-3.404-8.98-9.916-8.98zm293.354 0h20.795c-.184-4.63-3.212-9.163-10.397-9.163a10.065 10.065 0 0 0-10.398 9.163zM183.068 13.513h-9.19v16.734h9.27c5.95 0 9.548-3.308 9.548-8.41 0-5.103-3.309-8.324-9.628-8.324zM271.998 0a7.755 7.755 0 1 1-7.753 7.877A7.746 7.746 0 0 1 271.999 0zm148.656 0a7.755 7.755 0 1 1-7.754 7.877A7.746 7.746 0 0 1 420.654 0z"/>
  <path fill="#30f2a2" d="M43.76 68.634 0 47.192V3.43l43.76 21.443zM87.959 47.192V3.43l43.323 21.443z"/>
  <path fill="#14cc80" d="M43.76 68.634 87.96 47.192V3.43L43.761 24.874z"/>
  <path fill="#14cc80" d="m87.959 90.952 43.323-22.318v-43.76L87.959 47.192z"/>
</svg>
